packages/icons/raw/imported/MailFilterCrossed.svg

<svg width="32" height="32" viewBox="0 0 32 32" fill="none" xmlns="http://www.w3.org/2000/svg">
<path d="M13.5403 17.9029H14.0403V17.6989L13.8975 17.5531L13.5403 17.9029ZM8.26197 11.7971C8.06879 11.5998 7.75222 11.5965 7.55491 11.7896C7.35759 11.9828 7.35424 12.2994 7.54743 12.4967L8.26197 11.7971ZM13.5403 22.93H13.0403H13.5403ZM14.454 24.6149L14.7531 24.2142L14.7531 24.2142L14.454 24.6149ZM14.3441 24.5329L14.0451 24.9336L14.0451 24.9336L14.3441 24.5329ZM22.5251 7.05216L22.5229 7.55215L22.5251 7.05216ZM10.7403 6.5C10.4641 6.49878 10.2393 6.72165 10.2381 6.99779C10.2368 7.27393 10.4597 7.49877 10.7358 7.5L10.7403 6.5ZM24.055 10.2879L24.4428 10.6034L24.055 10.2879ZM19.255 15.3946C19.0807 15.6088 19.1131 15.9237 19.3273 16.098C19.5415 16.2723 19.8564 16.2399 20.0307 16.0258L19.255 15.3946ZM18.1502 21.923C18.1502 21.6469 17.9263 21.423 17.6502 21.423C17.374 21.423 17.1502 21.6469 17.1502 21.923H18.1502ZM17.6502 23.012H18.1502H17.6502ZM24.5 9.03584H25H24.5ZM7.83985 7.42504C7.6373 7.23734 7.32095 7.24938 7.13325 7.45193C6.94556 7.65448 6.9576 7.97083 7.16015 8.15853L7.83985 7.42504ZM22.5412 22.4115C22.7437 22.5992 23.0601 22.5872 23.2478 22.3847C23.4354 22.1821 23.4234 21.8657 23.2209 21.6781L22.5412 22.4115ZM13.8975 17.5531L8.26197 11.7971L7.54743 12.4967L13.183 18.2527L13.8975 17.5531ZM14.0403 22.93L14.0403 17.9029H13.0403L13.0403 22.93H14.0403ZM14.7531 24.2142L14.6432 24.1322L14.0451 24.9336L14.155 25.0157L14.7531 24.2142ZM22.5273 6.55216L10.7403 6.5L10.7358 7.5L22.5229 7.55215L22.5273 6.55216ZM23.6671 9.97228L19.255 15.3946L20.0307 16.0258L24.4428 10.6034L23.6671 9.97228ZM17.1502 21.923V23.012H18.1502V21.923H17.1502ZM14.155 25.0157C15.8038 26.2461 18.1502 25.0694 18.1502 23.012H17.1502C17.1502 24.2464 15.7424 24.9525 14.7531 24.2142L14.155 25.0157ZM25 9.03584C25 7.66842 23.8947 6.55821 22.5273 6.55216L22.5229 7.55215C23.3397 7.55577 24 8.21898 24 9.03584H25ZM13.0403 22.93C13.0403 23.719 13.4127 24.4618 14.0451 24.9336L14.6432 24.1322C14.2637 23.8491 14.0403 23.4034 14.0403 22.93H13.0403ZM24 9.03584C24 9.37697 23.8825 9.70768 23.6671 9.97228L24.4428 10.6034C24.8032 10.1605 25 9.60689 25 9.03584H24ZM7.16015 8.15853L22.5412 22.4115L23.2209 21.6781L7.83985 7.42504L7.16015 8.15853Z" fill="black"/>
</svg>

<svg width="32" height="32" fill="none" xmlns="http://www.w3.org/2000/svg"><path d="M13.54 17.903h.5v-.204l-.142-.146-.358.35Zm-5.278-6.106a.5.5 0 0 0-.715.7l.715-.7ZM13.54 22.93h-.5.5Zm.914 1.685.3-.4-.3.4Zm-.11-.082-.299.4.3-.4Zm8.181-17.48-.002.5.002-.5ZM10.74 6.5a.5.5 0 1 0-.004 1l.004-1Zm13.315 3.788.388.315-.388-.315Zm-4.8 5.107a.5.5 0 0 0 .776.63l-.776-.63Zm-1.105 6.528a.5.5 0 0 0-1 0h1Zm-.5 1.089h.5-.5ZM24.5 9.036h.5-.5ZM7.84 7.425a.5.5 0 1 0-.68.734l.68-.734ZM22.54 22.412a.5.5 0 0 0 .68-.734l-.68.733Zm-8.643-4.859-5.636-5.756-.715.7 5.636 5.756.715-.7Zm.142 5.377v-5.027h-1v5.027h1Zm.713 1.284-.11-.082-.598.802.11.082.598-.802Zm7.774-17.662L10.74 6.5l-.004 1 11.787.052.004-1Zm1.14 3.42-4.412 5.423.776.63 4.412-5.422-.776-.63ZM17.15 21.923v1.089h1v-1.089h-1Zm-2.995 3.093c1.649 1.23 3.995.053 3.995-2.004h-1c0 1.234-1.408 1.94-2.397 1.202l-.598.802ZM25 9.036a2.484 2.484 0 0 0-2.473-2.484l-.004 1A1.484 1.484 0 0 1 24 9.036h1ZM13.04 22.93a2.5 2.5 0 0 0 1.005 2.004l.598-.802a1.5 1.5 0 0 1-.603-1.202h-1ZM24 9.036c0 .341-.117.672-.333.936l.776.631c.36-.442.557-.996.557-1.567h-1ZM7.16 8.159 22.541 22.41l.68-.733L7.84 7.425l-.68.734Z" fill="#000"/></svg>
